content_processing_pipeline/Assets/luts/O_Clut.cube
TITLE "Generated by Resolve"
LUT_3D_SIZE 5
0.0355993 0.0417334 0.0429236
0.0519265 0.0379644 0.0358434
0.286687 0.0541238 0.0389715
0.365759 0.0531624 0.0433356
0.365759 0.0531624 0.0433356
0.0309606 0.0913405 0.0707713
0.0855268 0.096788 0.0576638
0.274815 0.054902 0.0383154
0.365759 0.0531624 0.0433356
0.365759 0.0531624 0.0433356
0.0922255 0.403769 0.236896
0.0729992 0.35993 0.190906
0.771695 0.505714 0.178515
0.779095 0.256031 0.0732586
0.753262 0.225757 0.0686961
0.685924 0.684855 0.336202
0.670649 0.675319 0.320638
0.849302 0.764477 0.441077
0.957443 0.770626 0.52929
0.957488 0.770336 0.528756
0.69279 0.689143 0.343191
0.677501 0.679591 0.327611
0.846723 0.762005 0.431662
0.957397 0.773648 0.53402
0.957397 0.773648 0.534051
0.030869 0.0370031 0.0469978
0.0768292 0.040116 0.0526284
0.279316 0.0521706 0.0386816
0.365759 0.0531624 0.0433356
0.365759 0.0531624 0.0433356
0.0309911 0.0985122 0.128939
0.0688182 0.0861524 0.0972305
0.266163 0.0517128 0.0381323
0.365759 0.0531624 0.0433356
0.365759 0.0531624 0.0433356
0.0620584 0.428336 0.350408
0.050782 0.385931 0.314595
0.759152 0.523735 0.224231
0.779644 0.257252 0.0739757
0.754742 0.228153 0.0692454
0.680247 0.702785 0.407691
0.695201 0.703563 0.391821
0.854612 0.76492 0.433249
0.958846 0.758022 0.489189
0.958541 0.761822 0.499779
0.669779 0.701137 0.414893
0.688487 0.703212 0.398932
0.843503 0.760952 0.430854
0.958968 0.757259 0.485832
0.958633 0.761349 0.497627
0.0275425 0.0324559 0.0643473
0.0411688 0.0361028 0.0889754
0.299031 0.0436713 0.103441
0.334203 0.0419471 0.0462806
0.330022 0.0417792 0.0443275
0.0318761 0.0551308 0.139544
0.0331121 0.0525216 0.137728
0.283482 0.0437781 0.112169
0.341878 0.0425269 0.0512398
0.339574 0.0421607 0.0487831
0.0659495 0.501076 0.607156
0.0580453 0.456504 0.573754
0.59469 0.564446 0.539727
0.719844 0.246326 0.202762
0.688838 0.200397 0.163226
0.120912 0.621958 0.694209
0.124651 0.624292 0.683268
0.480079 0.742473 0.697627
0.93492 0.796674 0.638605
0.939513 0.792218 0.622354
0.12015 0.621164 0.698177
0.121889 0.622965 0.689174
0.457938 0.742 0.711757
0.926696 0.805249 0.672816
0.929946 0.803983 0.667155
0.0285496 0.0329137 0.0855879
0.0293736 0.0335241 0.0971237
0.174502 0.0443275 0.153033
0.338872 0.0438239 0.106737
0.338003 0.0437934 0.104234
0.0323339 0.0489815 0.16614
0.0308843 0.0381628 0.145281
0.158007 0.0437018 0.156344
0.341543 0.0438849 0.112886
0.339986 0.0438392 0.109957
0.0787213 0.52961 0.67628
0.0652476 0.473945 0.649638
0.4701 0.607523 0.671931
0.682918 0.42501 0.547021
0.676799 0.351598 0.493111
0.112367 0.612604 0.707515
0.112367 0.612604 0.707515
0.549538 0.758923 0.765957
0.860471 0.795193 0.773526
0.870436 0.788525 0.765774
0.112367 0.612604 0.707515
0.112367 0.612604 0.707515
0.535821 0.756558 0.764996
0.851835 0.807599 0.77583
0.883818 0.811109 0.777768
0.0285801 0.0329595 0.0862745
0.0294347 0.0335851 0.0989548
0.153475 0.0434119 0.158679
0.346151 0.044007 0.119814
0.343938 0.043946 0.116487
0.0324407 0.0495308 0.168124
0.0308995 0.038056 0.145968
0.145632 0.0428931 0.16286
0.349844 0.0441291 0.127672
0.348974 0.0440833 0.124071
0.0792706 0.531334 0.676951
0.0654612 0.475319 0.650416
0.489998 0.617533 0.679088
0.671061 0.447578 0.569024
0.657191 0.382467 0.526726
0.112367 0.612604 0.707515
0.112367 0.612604 0.707515
0.548821 0.758801 0.765911
0.860487 0.797787 0.783108
0.864057 0.791852 0.775479
0.112367 0.612604 0.707515
0.112367 0.612604 0.707515
0.535103 0.756436 0.76495
0.850431 0.808255 0.790921
0.877195 0.811673 0.793729
