content_processing_pipeline/Assets/luts/O_Clut.cube
TITLE "Generated by Resolve"
LUT_3D_SIZE 9
0.0355993 0.0417334 0.0429236
0.0373541 0.0410925 0.0420386
0.0519265 0.0379644 0.0358434
0.119921 0.0448615 0.0331273
0.286687 0.0541238 0.0389715
0.364584 0.0534676 0.0432288
0.365759 0.0531624 0.0433356
0.365759 0.0531624 0.0433356
0.365759 0.0531624 0.0433356
0.0347448 0.0475013 0.0467079
0.0371099 0.0446632 0.0449531
0.0544137 0.0395819 0.036286
0.116213 0.0447852 0.03299
0.281468 0.0541695 0.0387121
0.364294 0.0535439 0.0432136
0.365759 0.0531624 0.0433356
0.365759 0.0531624 0.0433356
0.365759 0.0531624 0.0433356
0.0309606 0.0913405 0.0707713
0.032639 0.0867018 0.0657206
0.0855268 0.096788 0.0576638
0.184985 0.0652934 0.0364538
0.274815 0.054902 0.0383154
0.362966 0.0538338 0.0431067
0.365759 0.0531624 0.0433356
0.365759 0.0531624 0.0433356
0.365759 0.0531624 0.0433356
0.0357671 0.202213 0.128069
0.0352026 0.191318 0.116899
0.0399176 0.186511 0.100511
0.364904 0.269734 0.0914931
0.552926 0.148699 0.0542153
0.517922 0.0803845 0.0503853
0.454139 0.065156 0.0472267
0.431235 0.0615244 0.0462043
0.428534 0.0610971 0.0460975
0.0922255 0.403769 0.236896
0.0853285 0.388708 0.222461
0.0729992 0.35993 0.190906
0.274189 0.432715 0.20914
0.771695 0.505714 0.178515
0.825025 0.357397 0.10312
0.779095 0.256031 0.0732586
0.755993 0.228901 0.0691691
0.753262 0.225757 0.0686961
0.653437 0.668971 0.318959
0.634806 0.660838 0.313222
0.601999 0.64535 0.300496
0.701411 0.680171 0.30457
0.840421 0.736721 0.415213
0.946487 0.711528 0.415366
0.949187 0.664118 0.357412
0.946899 0.644343 0.326741
0.946532 0.641764 0.32311
0.685924 0.684855 0.336202
0.681102 0.681849 0.331289
0.670649 0.675319 0.320638
0.779446 0.713649 0.321859
0.849302 0.764477 0.441077
0.951415 0.770764 0.495247
0.957443 0.770626 0.52929
0.957488 0.770489 0.529
0.957488 0.770336 0.528756
0.691997 0.688655 0.342382
0.687175 0.685634 0.337469
0.676707 0.679103 0.326818
0.777264 0.71339 0.323507
0.846952 0.762264 0.43267
0.95111 0.770779 0.493355
0.957397 0.773632 0.533867
0.957397 0.773648 0.534051
0.957397 0.773648 0.534051
0.69279 0.689143 0.343191
0.687953 0.686122 0.338262
0.677501 0.679591 0.327611
0.77702 0.713375 0.323735
0.846723 0.762005 0.431662
0.950942 0.770779 0.492683
0.957397 0.773648 0.53402
0.957397 0.773648 0.534051
0.957397 0.773648 0.534051
0.035462 0.0417945 0.0435645
0.0376135 0.0409094 0.0429236
0.0527352 0.0378271 0.0364691
0.119753 0.0448463 0.0331121
0.286488 0.0541238 0.0389563
0.364569 0.0534676 0.0432288
0.365759 0.0531624 0.0433356
0.365759 0.0531624 0.0433356
0.365759 0.0531624 0.0433356
0.0340124 0.0485389 0.0500191
0.0367132 0.0442969 0.0461128
0.0548104 0.0392004 0.0372931
0.11603 0.0447852 0.03299
0.281331 0.0541695 0.0386969
0.364294 0.0535439 0.0432136
0.365759 0.0531624 0.0433356
0.365759 0.0531624 0.0433356
0.365759 0.0531624 0.0433356
0.0304723 0.0949722 0.0894026
0.0312047 0.0890516 0.0805829
0.0821393 0.0947738 0.0641794
0.186206 0.0652171 0.0370794
0.275181 0.054963 0.0383307
0.362936 0.0538338 0.0431067
0.365759 0.0531624 0.0433356
0.365759 0.0531624 0.0433356
0.365759 0.0531624 0.0433356
0.0349126 0.212558 0.160006
0.0343023 0.201114 0.147219
0.036759 0.191867 0.125444
0.359304 0.269368 0.0979782
0.553048 0.149279 0.0545205
0.519081 0.0806439 0.0504463
0.455207 0.0653239 0.0472725
0.432319 0.0617075 0.0462501
0.429618 0.0612802 0.0461433
0.0724346 0.409171 0.272541
0.0678569 0.394415 0.259449
0.0622873 0.367025 0.226841
0.232624 0.427787 0.221088
0.770733 0.508125 0.182696
0.825666 0.358877 0.103914
0.780285 0.256931 0.0733806
0.757092 0.230167 0.0693523
0.75436 0.227008 0.0688792
0.67512 0.68249 0.340673
0.656748 0.674647 0.334951
0.621485 0.659022 0.322316
0.714519 0.687846 0.31426
0.844816 0.741421 0.416007
0.946639 0.711818 0.414923
0.949401 0.665171 0.358785
0.947051 0.645426 0.328267
0.946715 0.642863 0.324254
0.700465 0.696193 0.358892
0.698665 0.694041 0.353491
0.69189 0.688579 0.342275
0.784146 0.719707 0.336843
0.856458 0.765469 0.433768
0.953918 0.767071 0.486488
0.957443 0.771145 0.530007
0.957488 0.770672 0.529183
0.957504 0.77052 0.528908
0.702708 0.698863 0.365667
0.700923 0.696727 0.360265
0.697047 0.692103 0.348592
0.776669 0.718044 0.340856
0.852033 0.762936 0.427375
0.954421 0.766339 0.483085
0.957488 0.772931 0.531731
0.957397 0.773632 0.534005
0.957397 0.773648 0.534051
0.702968 0.699168 0.366415
0.701167 0.697032 0.361013
0.697292 0.692409 0.34934
0.775814 0.717861 0.341344
0.851484 0.762631 0.426642
0.954284 0.766293 0.482246
0.957504 0.772931 0.531716
0.957412 0.773556 0.533745
0.957397 0.773632 0.534005
0.030869 0.0370031 0.0469978
0.0351415 0.0372931 0.0476844
0.0768292 0.040116 0.0526284
0.126116 0.0437476 0.038468
0.279316 0.0521706 0.0386816
0.364538 0.0534829 0.0432288
0.365759 0.0531624 0.0433356
0.365759 0.0531624 0.0433356
0.365759 0.0531624 0.0433356
0.0294957 0.0442664 0.058854
0.031342 0.0390173 0.0514839
0.0766155 0.0407721 0.0576486
0.126589 0.0435645 0.0404974
0.272251 0.0516823 0.0383459
0.364263 0.0535439 0.0432136
0.365759 0.0531624 0.0433356
0.365759 0.0531624 0.0433356
0.365759 0.0531624 0.0433356
0.0309911 0.0985122 0.128939
0.0307622 0.093492 0.120119
0.0688182 0.0861524 0.0972305
0.188968 0.0607309 0.0486152
0.266163 0.0517128 0.0381323
0.358038 0.0530861 0.0429084
0.365759 0.0531624 0.0433356
0.365759 0.0531624 0.0433356
0.365759 0.0531624 0.0433356
0.0363317 0.242023 0.241886
0.0357824 0.230549 0.229587
0.0349889 0.212207 0.199252
0.328115 0.264424 0.143175
0.537591 0.144503 0.0584878
0.519509 0.0789044 0.0504463
0.456596 0.0649882 0.0473487
0.433494 0.0616922 0.0463264
0.430884 0.0613107 0.0462043
0.0620584 0.428336 0.350408
0.0537118 0.412345 0.340291
0.050782 0.385931 0.314595
0.169757 0.425834 0.252537
0.759152 0.523735 0.224231
0.823987 0.364385 0.116243
0.779644 0.257252 0.0739757
0.757336 0.23122 0.0697337
0.754742 0.228153 0.0692454
0.68217 0.698634 0.3897
0.673716 0.694102 0.383398
0.649439 0.682109 0.369558
0.702892 0.69575 0.354208
0.843061 0.748135 0.426139
0.950378 0.712734 0.404425
0.950545 0.668544 0.356039
0.948013 0.648676 0.32813
0.947692 0.646265 0.324697
0.680247 0.702785 0.407691
0.684977 0.703029 0.40267
0.695201 0.703563 0.391821
0.74699 0.716762 0.375433
0.854612 0.76492 0.433249
0.958099 0.751583 0.449363
0.958846 0.758022 0.489189
0.958572 0.761563 0.498955
0.958541 0.761822 0.499779
0.671077 0.701366 0.414069
0.679042 0.702724 0.408972
0.689265 0.703258 0.398123
0.737438 0.714717 0.380392
0.844831 0.76141 0.431022
0.958007 0.750713 0.44712
0.958938 0.757595 0.486809
0.958648 0.761196 0.497185
0.958618 0.761547 0.498222
0.669779 0.701137 0.414893
0.677745 0.702495 0.409796
0.688487 0.703212 0.398932
0.736126 0.714427 0.380987
0.843503 0.760952 0.430854
0.9579 0.750759 0.446418
0.958968 0.757259 0.485832
0.958663 0.761028 0.496727
0.958633 0.761349 0.497627
0.0282902 0.0333715 0.0554971
0.0302281 0.0332799 0.0572671
0.0660716 0.0389868 0.0855116
0.162631 0.0442664 0.0873274
0.278492 0.0437018 0.0455787
0.308293 0.044419 0.0408637
0.31368 0.0451972 0.0412604
0.319554 0.046067 0.0415045
0.320485 0.0462043 0.0415503
0.0283818 0.0379187 0.0679942
0.0288396 0.0354009 0.063386
0.0629587 0.0386053 0.0865644
0.156588 0.0442359 0.0902724
0.278965 0.0437629 0.0481422
0.306737 0.0441444 0.0407263
0.312032 0.0449836 0.0411536
0.314046 0.045243 0.0412909
0.314656 0.0453346 0.0413062
0.0318608 0.0746014 0.138918
0.0314336 0.0698711 0.130297
0.0500649 0.0675517 0.124208
0.202976 0.0506752 0.108156
0.286 0.0440833 0.0551766
0.303777 0.0434577 0.0404974
0.308537 0.0445106 0.0409247
0.310536 0.0447852 0.0410468
0.310796 0.0448157 0.041062
0.0419776 0.272709 0.346471
0.0412146 0.259724 0.334218
0.0397803 0.238651 0.310399
0.237232 0.251835 0.258396
0.492988 0.132769 0.118761
0.459724 0.0534981 0.049424
0.387198 0.0460365 0.0444953
0.367758 0.0457465 0.0436713
0.365377 0.0457008 0.0435798
0.0594949 0.463355 0.48275
0.0542611 0.446708 0.475319
0.051133 0.421546 0.45272
0.0889601 0.44715 0.379889
0.716594 0.537072 0.287114
0.805035 0.368902 0.171695
0.755627 0.245731 0.0839246
0.733425 0.219013 0.0762341
0.730816 0.215915 0.0754559
0.480064 0.672465 0.485771
0.492393 0.672267 0.477546
0.504814 0.669627 0.461646
0.581781 0.687266 0.460655
0.805585 0.749203 0.474235
0.953017 0.727077 0.438712
0.952987 0.691646 0.396963
0.950561 0.674144 0.375372
0.950256 0.671931 0.372656
0.409598 0.664637 0.510643
0.433082 0.667628 0.503273
0.483894 0.674128 0.487343
0.534997 0.682399 0.4766
0.7823 0.752865 0.492668
0.958556 0.753552 0.466072
0.959777 0.747921 0.458961
0.959899 0.746288 0.454261
0.959915 0.746136 0.453803
0.37998 0.660929 0.520211
0.403586 0.663859 0.51252
0.454398 0.670359 0.49659
0.507591 0.677974 0.482444
0.758129 0.745708 0.494759
0.958007 0.756588 0.473548
0.959655 0.749157 0.462531
0.959808 0.747524 0.457832
0.959823 0.747341 0.457298
0.375891 0.660578 0.522179
0.399756 0.663371 0.513726
0.451118 0.669932 0.497627
0.504036 0.677394 0.483238
0.754238 0.744625 0.495201
0.957885 0.757061 0.474281
0.95964 0.749355 0.463111
0.959792 0.747646 0.458198
0.959808 0.747494 0.45774
0.0275425 0.0324559 0.0643473
0.0279698 0.0326085 0.0651865
0.0411688 0.0361028 0.0889754
0.115267 0.0428321 0.111818
0.299031 0.0436713 0.103441
0.3449 0.0426642 0.0541238
0.334203 0.0419471 0.0462806
0.330434 0.0417945 0.0445258
0.330022 0.0417792 0.0443275
0.0279088 0.0333867 0.0721904
0.0280308 0.0334173 0.0719463
0.040238 0.0361791 0.0935378
0.10869 0.0424201 0.111192
0.290883 0.0437171 0.105928
0.347036 0.0429694 0.0565347
0.337194 0.0420691 0.0476844
0.33344 0.0419165 0.0459297
0.333013 0.0419013 0.0457313
0.0318761 0.0551308 0.139544
0.03122 0.0513619 0.128542
0.0331121 0.0525216 0.137728
0.149386 0.0458228 0.140139
0.283482 0.0437781 0.112169
0.352224 0.0436866 0.0633249
0.341878 0.0425269 0.0512398
0.339925 0.0421912 0.0489967
0.339574 0.0421607 0.0487831
0.0469062 0.28275 0.42649
0.0457923 0.266941 0.408011
0.0435035 0.237049 0.375372
0.076997 0.227008 0.334371
0.479057 0.138613 0.215442
0.465797 0.0484627 0.0823072
0.417563 0.0457923 0.0583352
0.398245 0.0448005 0.0564584
0.395956 0.0446937 0.056199
0.0659495 0.501076 0.607156
0.0615854 0.482963 0.596689
0.0580453 0.456504 0.573754
0.0689403 0.48455 0.566949
0.59469 0.564446 0.539727
0.743999 0.374609 0.344167
0.719844 0.246326 0.202762
0.692134 0.205188 0.1673
0.688838 0.200397 0.163226
0.125307 0.624567 0.682048
0.129702 0.62623 0.675166
0.139834 0.629969 0.660319
0.14522 0.636576 0.659998
0.530282 0.711452 0.600855
0.91133 0.738308 0.548608
0.933913 0.70573 0.52076
0.933486 0.688975 0.501503
0.93344 0.686931 0.498924
0.120912 0.621958 0.694209
0.121477 0.622538 0.691295
0.124651 0.624292 0.683268
0.123568 0.625254 0.683497
0.480079 0.742473 0.697627
0.915892 0.80145 0.637446
0.93492 0.796674 0.638605
0.938949 0.79292 0.625071
0.939513 0.792218 0.622354
0.120226 0.621241 0.69778
0.12079 0.62182 0.694865
0.121981 0.623056 0.688716
0.120317 0.622171 0.6869
0.460136 0.742061 0.710353
0.908019 0.804654 0.650416
0.927077 0.805112 0.671855
0.930449 0.803433 0.664866
0.931029 0.803113 0.662837
0.12015 0.621164 0.698177
0.120699 0.621729 0.695323
0.121889 0.622965 0.689174
0.11986 0.621775 0.687266
0.457938 0.742 0.711757
0.906798 0.804746 0.651209
0.926696 0.805249 0.672816
0.929442 0.804257 0.668788
0.929946 0.803983 0.667155
0.027924 0.0324559 0.0755474
0.0279698 0.032517 0.0760204
0.0298314 0.0336461 0.0896925
0.0804761 0.0399176 0.122942
0.232242 0.0444648 0.134325
0.328466 0.0437171 0.092256
0.336233 0.0437629 0.0826429
0.337621 0.0437629 0.0805371
0.337896 0.0437781 0.080293
0.0284428 0.0329442 0.0829938
0.028397 0.0330358 0.0829023
0.0299382 0.0338598 0.095079
0.0753643 0.0394903 0.122789
0.221546 0.0445411 0.135637
0.326421 0.0437018 0.0947585
0.335317 0.0437781 0.0843061
0.336461 0.0437629 0.0822156
0.336599 0.0437629 0.0819867
0.0318456 0.0505379 0.154833
0.0310979 0.0457465 0.140734
0.0309911 0.0410925 0.140887
0.0989395 0.0414282 0.165393
0.210712 0.0446174 0.140627
0.319692 0.0436866 0.102174
0.333303 0.0437781 0.087953
0.334462 0.0437781 0.0858625
0.334585 0.0437781 0.0856336
0.0485389 0.279774 0.455711
0.0475013 0.26392 0.438392
0.0459297 0.238758 0.411994
0.047013 0.215412 0.383413
0.418662 0.144427 0.289433
0.456489 0.0480659 0.137621
0.417182 0.0458991 0.0996414
0.397406 0.045243 0.0957504
0.395163 0.045182 0.0952773
0.0740215 0.515602 0.665583
0.0672007 0.492317 0.654795
0.0616617 0.457649 0.633234
0.0661784 0.465385 0.622309
0.38967 0.554879 0.621668
0.716304 0.46453 0.533288
0.737591 0.328923 0.420066
0.716869 0.269596 0.363882
0.714153 0.262852 0.357137
0.112444 0.61265 0.707439
0.112322 0.612421 0.707317
0.112383 0.61236 0.70692
0.151354 0.641672 0.713588
0.471229 0.729335 0.733928
0.789639 0.732341 0.704814
0.854597 0.708995 0.685466
0.856626 0.70695 0.68278
0.856199 0.705882 0.681849
0.112383 0.612619 0.707515
0.112413 0.61265 0.7075
0.112474 0.612711 0.707454
0.13756 0.632517 0.711666
0.542504 0.760143 0.761334
0.756924 0.782925 0.718547
0.901457 0.795132 0.707988
0.907408 0.788037 0.707698
0.907362 0.787167 0.706767
0.112428 0.612665 0.707485
0.112444 0.61268 0.707485
0.112474 0.612711 0.707454
0.130007 0.627649 0.710262
0.529961 0.757473 0.760937
0.745571 0.78471 0.726467
0.899001 0.809277 0.716228
0.91191 0.808194 0.721996
0.912428 0.807736 0.722011
0.112428 0.612665 0.707485
0.112444 0.61268 0.707485
0.112474 0.612711 0.707469
0.129107 0.62707 0.710094
0.528496 0.757153 0.760906
0.743847 0.784695 0.727474
0.898192 0.809201 0.716381
0.912123 0.810147 0.723583
0.912825 0.809689 0.723827
0.0285496 0.0329137 0.0855879
0.0285801 0.0329442 0.0861067
0.0293736 0.0335241 0.0971237
0.06598 0.0383764 0.137606
0.174502 0.0443275 0.153033
0.330327 0.0439307 0.11841
0.338872 0.0438239 0.106737
0.338094 0.0437934 0.104479
0.338003 0.0437934 0.104234
0.0289921 0.0333715 0.0934462
0.0289464 0.0333562 0.0931868
0.0296483 0.0337987 0.103761
0.061677 0.0380102 0.137133
0.165377 0.0440986 0.153017
0.329595 0.0439918 0.121935
0.339483 0.0438392 0.108537
0.338704 0.0438087 0.106279
0.338628 0.0438087 0.106035
0.0323339 0.0489815 0.16614
0.0315099 0.0443275 0.151888
0.0308843 0.0381628 0.145281
0.0708934 0.0402075 0.175784
0.158007 0.0437018 0.156344
0.319265 0.0440375 0.131228
0.341543 0.0438849 0.112886
0.340063 0.0438392 0.110216
0.339986 0.0438392 0.109957
0.0488289 0.279637 0.463645
0.0478065 0.262943 0.446204
0.0462348 0.235431 0.418799
0.0452735 0.213458 0.408347
0.358389 0.152575 0.338628
0.456474 0.0492714 0.188876
0.437018 0.0466163 0.138369
0.415366 0.0457771 0.130556
0.412757 0.0457008 0.129778
0.0787213 0.52961 0.67628
0.0722667 0.509804 0.668498
0.0652476 0.473945 0.649638
0.078172 0.489952 0.648951
0.4701 0.607523 0.671931
0.66479 0.522972 0.611032
0.682918 0.42501 0.547021
0.677424 0.35967 0.499138
0.676799 0.351598 0.493111
0.112367 0.612604 0.707515
0.112169 0.612222 0.707378
0.111772 0.611399 0.707073
0.156085 0.643381 0.715084
0.516136 0.729595 0.74818
0.778302 0.744488 0.746502
0.830549 0.740795 0.736477
0.837354 0.74551 0.739315
0.837156 0.745235 0.739147
0.112367 0.612604 0.707515
0.112367 0.612604 0.707515
0.112367 0.612604 0.707515
0.138888 0.633295 0.7122
0.549538 0.758923 0.765957
0.725612 0.787259 0.774731
0.860471 0.795193 0.773526
0.870756 0.78941 0.76669
0.870436 0.788525 0.765774
0.112367 0.612604 0.707515
0.112367 0.612604 0.707515
0.112367 0.612604 0.707515
0.130312 0.628016 0.710567
0.53727 0.756817 0.765103
0.721416 0.787976 0.777874
0.852888 0.807767 0.77554
0.880766 0.809323 0.777081
0.88249 0.808911 0.776867
0.112367 0.612604 0.707515
0.112367 0.612604 0.707515
0.112367 0.612604 0.707515
0.129305 0.62739 0.710369
0.535821 0.756558 0.764996
0.720943 0.787869 0.778149
0.851835 0.807599 0.77583
0.881285 0.81117 0.777783
0.883818 0.811109 0.777768
0.0285649 0.0329595 0.0862135
0.0286259 0.0329747 0.0870985
0.0294347 0.0335851 0.0988937
0.0621653 0.037995 0.14107
0.155642 0.0435187 0.158083
0.33753 0.0441596 0.131624
0.345113 0.0439765 0.118257
0.34316 0.0439307 0.115328
0.342901 0.0439155 0.114931
0.0290379 0.0334173 0.0941787
0.0289921 0.033402 0.0941024
0.0297093 0.0338293 0.105501
0.0580911 0.0376745 0.139803
0.147814 0.0432288 0.157946
0.333791 0.0442054 0.135012
0.346731 0.0440223 0.120699
0.344747 0.0439612 0.117708
0.344518 0.0439612 0.117372
0.0324254 0.0494545 0.16788
0.0316014 0.0447242 0.153567
0.0308995 0.038056 0.145846
0.0669566 0.0400092 0.177569
0.146349 0.0429694 0.162097
0.314321 0.0442817 0.14406
0.349828 0.0440986 0.125902
0.348211 0.0440528 0.122911
0.347951 0.0440528 0.122515
0.0489204 0.281117 0.465187
0.0478676 0.264149 0.447486
0.0462959 0.236133 0.420035
0.0454108 0.214176 0.411856
0.331624 0.151293 0.348684
0.447715 0.0495613 0.210422
0.441337 0.0471656 0.158602
0.421622 0.0462348 0.147753
0.419226 0.0461585 0.146792
0.0791791 0.531044 0.676844
0.0728313 0.511528 0.669169
0.0654307 0.47512 0.650294
0.0800031 0.492897 0.650965
0.487633 0.616373 0.678279
0.671931 0.540154 0.623758
0.67155 0.446021 0.567651
0.659098 0.387259 0.529458
0.657786 0.379904 0.52459
0.112367 0.612604 0.707515
0.112184 0.612253 0.707393
0.111788 0.611429 0.707088
0.155856 0.643244 0.715038
0.520485 0.730266 0.749432
0.798611 0.75668 0.757626
0.830274 0.750301 0.746563
0.837598 0.755215 0.749035
0.837568 0.755138 0.748974
0.112367 0.612604 0.707515
0.112367 0.612604 0.707515
0.112367 0.612604 0.707515
0.138552 0.633097 0.712139
0.548821 0.758801 0.765911
0.730358 0.787472 0.780896
0.860502 0.797498 0.782132
0.864912 0.792294 0.775525
0.8645 0.791501 0.774807
0.112367 0.612604 0.707515
0.112367 0.612604 0.707515
0.112367 0.612604 0.707515
0.129976 0.627817 0.710506
0.536782 0.756725 0.765072
0.723674 0.787961 0.781369
0.851331 0.808377 0.791012
0.87509 0.810086 0.790784
0.876661 0.809735 0.790158
0.112367 0.612604 0.707515
0.112367 0.612604 0.707515
0.112367 0.612604 0.707515
0.128969 0.627192 0.710307
0.535332 0.756481 0.764965
0.722927 0.787839 0.781308
0.850553 0.80827 0.790936
0.875364 0.811368 0.792187
0.877882 0.811643 0.792126
0.0285801 0.0329595 0.0862745
0.0286259 0.0329747 0.0871443
0.0294347 0.0335851 0.0989548
0.061738 0.0379492 0.14139
0.153475 0.0434119 0.158679
0.336782 0.0441901 0.133196
0.346151 0.044007 0.119814
0.344198 0.043946 0.116869
0.343938 0.043946 0.116487
0.0290379 0.0334173 0.0941787
0.0289921 0.033402 0.0942092
0.0297093 0.0338293 0.105547
0.0576791 0.0376287 0.140108
0.146426 0.0431525 0.15845
0.33283 0.0442359 0.136553
0.347768 0.0440528 0.12224
0.345769 0.0439918 0.119249
0.345556 0.0439918 0.118929
0.0324407 0.0495308 0.168124
0.0316167 0.0448157 0.153826
0.0308995 0.038056 0.145968
0.0667277 0.0399481 0.177737
0.145632 0.0428931 0.16286
0.313054 0.0443122 0.145586
0.349844 0.0441291 0.127672
0.349233 0.0440833 0.124453
0.348974 0.0440833 0.124071
0.0489204 0.281117 0.465187
0.0478828 0.264393 0.447745
0.0462959 0.236133 0.420035
0.0454261 0.214084 0.412085
0.330434 0.151522 0.349355
0.447028 0.0496223 0.212711
0.441749 0.0472419 0.161212
0.422065 0.0463111 0.150103
0.419669 0.0462196 0.149126
0.0792706 0.531334 0.676951
0.0728313 0.511528 0.669169
0.0654612 0.475319 0.650416
0.0798962 0.492653 0.650889
0.489998 0.617533 0.679088
0.672526 0.541146 0.624475
0.671061 0.447578 0.569024
0.658549 0.389715 0.531502
0.657191 0.382467 0.526726
0.112367 0.612604 0.707515
0.112184 0.612253 0.707393
0.111788 0.611429 0.707088
0.155856 0.643244 0.715038
0.520562 0.730327 0.749462
0.800977 0.758129 0.758938
0.830671 0.751324 0.747463
0.837812 0.756085 0.749767
0.837781 0.755993 0.749691
0.112367 0.612604 0.707515
0.112367 0.612604 0.707515
0.112367 0.612604 0.707515
0.138552 0.633097 0.712139
0.548821 0.758801 0.765911
0.730343 0.787518 0.780926
0.860487 0.797787 0.783108
0.86453 0.792691 0.776211
0.864057 0.791852 0.775479
0.112367 0.612604 0.707515
0.112367 0.612604 0.707515
0.112367 0.612604 0.707515
0.129976 0.627817 0.710506
0.536538 0.756695 0.765057
0.723552 0.78793 0.781353
0.851331 0.808377 0.791012
0.874388 0.810132 0.792325
0.87602 0.809857 0.79173
0.112367 0.612604 0.707515
0.112367 0.612604 0.707515
0.112367 0.612604 0.707515
0.128969 0.627192 0.710307
0.535103 0.756436 0.76495
0.722805 0.787823 0.781308
0.850431 0.808255 0.790921
0.874784 0.811383 0.793454
0.877195 0.811673 0.793729
