content_processing_pipeline/Assets/luts/O_Clut.cube
TITLE "Generated by Resolve"
LUT_3D_SIZE 33
0.0355993 0.0417334 0.0429236
0.0357671 0.0416724 0.0428473
0.0359045 0.0416114 0.042771
0.0359808 0.0414893 0.0426642
0.0373541 0.0410925 0.0420386
0.0405127 0.0405585 0.0409094
0.0444953 0.0398718 0.0395666
0.0481422 0.0390021 0.0378576
0.0519265 0.0379644 0.0358434
0.0539559 0.0369116 0.0339361
0.0660563 0.0387274 0.0324865
0.0921492 0.0426032 0.0323796
0.119921 0.0448615 0.0331273
0.147539 0.04654 0.0337072
0.191897 0.0498207 0.0350805
0.245182 0.0540322 0.0369421
0.286687 0.0541238 0.0389715
0.315389 0.0538186 0.0404974
0.342107 0.0541695 0.0419318
0.360082 0.0544289 0.0429084
0.364584 0.0534676 0.0432288
0.365179 0.053315 0.0432898
0.365759 0.0531624 0.0433356
0.365759 0.0531624 0.0433356
0.365759 0.0531624 0.0433356
0.365759 0.0531624 0.0433356
0.365759 0.0531624 0.0433356
0.365759 0.0531624 0.0433356
0.365759 0.0531624 0.0433356
0.365759 0.0531624 0.0433356
0.365759 0.0531624 0.0433356
0.365759 0.0531624 0.0433356
0.365759 0.0531624 0.0433356
0.0355383 0.0423133 0.0434577
0.0357977 0.042298 0.0433814
0.0360113 0.0422827 0.0432898
0.0361944 0.0422217 0.0431983
0.0373541 0.0418708 0.0426337
0.0405127 0.0409705 0.0412451
0.0441749 0.0399329 0.0396735
0.0479133 0.0390631 0.0379644
0.0518044 0.0380255 0.035935
0.0538491 0.0369726 0.0340429
0.0654459 0.0386206 0.0325475
0.0908064 0.0424048 0.0323491
0.11902 0.0448463 0.0330968
0.146456 0.0464485 0.0336919
0.190127 0.0496986 0.0350195
0.243519 0.0538949 0.0368811
0.285786 0.054139 0.0389258
0.314504 0.0538186 0.0404517
0.341314 0.054139 0.041886
0.359854 0.05449 0.0428931
0.364523 0.0534829 0.0432288
0.365148 0.053315 0.0432898
0.365759 0.0531624 0.0433356
0.365759 0.0531624 0.0433356
0.365759 0.0531624 0.0433356
0.365759 0.0531624 0.0433356
0.365759 0.0531624 0.0433356
0.365759 0.0531624 0.0433356
0.365759 0.0531624 0.0433356
0.365759 0.0531624 0.0433356
0.365759 0.0531624 0.0433356
0.365759 0.0531624 0.0433356
0.365759 0.0531624 0.0433356
0.0354467 0.0428626 0.044007
0.0357824 0.0428779 0.0439002
0.0360723 0.0428931 0.0438087
0.036347 0.0428931 0.0437171
0.0373388 0.0426642 0.0432746
0.0408026 0.0417639 0.0417334
0.0447852 0.0406348 0.0399176
0.0479133 0.0392309 0.0380865
0.0517128 0.0380713 0.0360266
0.0537575 0.0370184 0.0341192
0.0648356 0.0385138 0.0325933
0.0897231 0.0422522 0.0323339
0.118212 0.0448157 0.0330663
0.14548 0.0463722 0.0336767
0.188525 0.0495766 0.0349584
0.241856 0.0537575 0.03682
0.284657 0.054139 0.0388647
0.313634 0.0538186 0.0404059
0.340536 0.0541085 0.0418555
0.35964 0.0545357 0.0428779
0.364462 0.0534981 0.0432288
0.365103 0.0533303 0.0432746
0.365759 0.0531624 0.0433356
0.365759 0.0531624 0.0433356
0.365759 0.0531624 0.0433356
0.365759 0.0531624 0.0433356
0.365759 0.0531624 0.0433356
0.365759 0.0531624 0.0433356
0.365759 0.0531624 0.0433356
0.365759 0.0531624 0.0433356
0.365759 0.0531624 0.0433356
0.365759 0.0531624 0.0433356
0.365759 0.0531624 0.0433356
0.0353246 0.0434882 0.0446479
0.0357366 0.0435492 0.0445258
0.0361028 0.043595 0.044419
0.0364691 0.0436408 0.0443275
0.0372473 0.0435798 0.0440223
0.0410468 0.0426642 0.0423285
0.0455024 0.0415198 0.0403143
0.0492103 0.0401312 0.0382696
0.0522927 0.0384527 0.0361334
0.0536507 0.0370794 0.034226
0.0641489 0.0383917 0.0326543
0.0882429 0.0420539 0.0323033
0.117296 0.0448005 0.0330358
0.144396 0.0462806 0.0336614
0.18674 0.0494545 0.0348974
0.240009 0.0536049 0.036759
0.283268 0.0541543 0.0388037
0.312673 0.0538033 0.0403601
0.339651 0.054078 0.0418097
0.359411 0.0545815 0.0428626
0.364385 0.0535134 0.0432136
0.365072 0.0533455 0.0432746
0.365759 0.0531624 0.0433356
0.365759 0.0531624 0.0433356
0.365759 0.0531624 0.0433356
0.365759 0.0531624 0.0433356
0.365759 0.0531624 0.0433356
0.365759 0.0531624 0.0433356
0.365759 0.0531624 0.0433356
0.365759 0.0531624 0.0433356
0.365759 0.0531624 0.0433356
0.365759 0.0531624 0.0433356
0.365759 0.0531624 0.0433356
0.0347448 0.0475013 0.0467079
0.0353094 0.0468147 0.0461738
0.0358434 0.0460975 0.045716
0.0364538 0.0452583 0.0452735
0.0371099 0.0446632 0.0449531
0.0411994 0.0437476 0.0431373
0.0461585 0.0426032 0.0408942
0.0507515 0.0412451 0.0385138
0.0544137 0.0395819 0.036286
0.0572824 0.0384527 0.0344396
0.0632639 0.0382391 0.0327306
0.0866255 0.041825 0.0322728
0.116213 0.0447852 0.03299
0.143099 0.0461738 0.0336461
0.184604 0.0493019 0.0348211
0.237613 0.0534218 0.0366827
0.281468 0.0541695 0.0387121
0.311406 0.0538033 0.0402838
0.338613 0.0540322 0.0417487
0.359121 0.0546426 0.0428321
0.364294 0.0535439 0.0432136
0.365026 0.0533455 0.0432746
0.365759 0.0531624 0.0433356
0.365759 0.0531624 0.0433356
0.365759 0.0531624 0.0433356
0.365759 0.0531624 0.0433356
0.365759 0.0531624 0.0433356
0.365759 0.0531624 0.0433356
0.365759 0.0531624 0.0433356
0.365759 0.0531624 0.0433356
0.365759 0.0531624 0.0433356
0.365759 0.0531624 0.0433356
0.365759 0.0531624 0.0433356
0.033814 0.0537575 0.0500191
0.0344396 0.0531014 0.0492409
0.0350195 0.052491 0.0485542
0.0356756 0.0517739 0.0478676
0.0364691 0.0508888 0.0471046
0.0411841 0.0499886 0.0454261
0.0472725 0.0472419 0.0425422
0.0524147 0.0426032 0.0390173
0.0569619 0.0410163 0.0365148
0.0645457 0.0411383 0.0347753
0.0713512 0.0409552 0.0331121
0.0854658 0.0417792 0.0322728
0.114763 0.0447547 0.0329442
0.14136 0.0460212 0.0336156
0.181765 0.0490883 0.0347143
0.234852 0.053193 0.0365759
0.279393 0.0541848 0.0386053
0.309941 0.0538186 0.0402075
0.337209 0.0539712 0.0416724
0.358755 0.0547189 0.0428168
0.364202 0.0535592 0.0431983
0.364981 0.0533608 0.0432746
0.365759 0.0531624 0.0433356
0.365759 0.0531624 0.0433356
0.365759 0.0531624 0.0433356
0.365759 0.0531624 0.0433356
0.365759 0.0531624 0.0433356
0.365759 0.0531624 0.0433356
0.365759 0.0531624 0.0433356
0.365759 0.0531624 0.0433356
0.365759 0.0531624 0.0433356
0.365759 0.0531624 0.0433356
0.365759 0.0531624 0.0433356
0.0328679 0.06215 0.054551
0.0333104 0.0611734 0.0535897
0.0339208 0.0604715 0.0525978
0.0346227 0.0599069 0.0516365
0.0354925 0.0591897 0.0504616
0.0404822 0.06009 0.0492256
0.0492561 0.0613565 0.0471962
0.0592355 0.0587778 0.0437934
0.067689 0.0510262 0.0393988
0.0736553 0.0450599 0.0354467
0.0839704 0.0451972 0.0336461
0.0967269 0.0451972 0.0327459
0.117632 0.0455787 0.0331121
0.1393 0.0458534 0.0335851
0.178378 0.0488441 0.0345922
0.231159 0.0528878 0.0364538
0.276616 0.0542153 0.038468
0.307958 0.0538338 0.0401007
0.335439 0.0538949 0.0415808
0.358312 0.0548104 0.042771
0.364065 0.0536049 0.043183
0.364904 0.0533761 0.0432593
0.365698 0.0531777 0.0433356
0.365759 0.0531624 0.0433356
0.365759 0.0531624 0.0433356
0.365759 0.0531624 0.0433356
0.365759 0.0531624 0.0433356
0.365759 0.0531624 0.0433356
0.365759 0.0531624 0.0433356
0.365759 0.0531624 0.0433356
0.365759 0.0531624 0.0433356
0.365759 0.0531624 0.0433356
0.365759 0.0531624 0.0433356
0.032166 0.0752117 0.0611887
0.0324102 0.0740215 0.0601663
0.0329137 0.073228 0.0592508
0.0334783 0.072343 0.0581979
0.034226 0.0712749 0.0568704
0.0374762 0.0713359 0.0553597
0.0482795 0.075349 0.0538491
0.0644388 0.0797742 0.0508888
0.0865187 0.0724956 0.0464027
0.103288 0.065507 0.0416419
0.114992 0.0591897 0.0374304
0.117723 0.0521859 0.0339208
0.127672 0.0477913 0.0336614
0.149599 0.0481422 0.0339666
0.180102 0.0495155 0.0346532
0.226734 0.0525368 0.0363012
0.273289 0.0542306 0.0382849
0.305577 0.0538796 0.0399786
0.33312 0.0538796 0.0414588
0.357046 0.0548257 0.04271
0.363638 0.0536965 0.0431525
0.364828 0.0534066 0.0432593
0.365621 0.053193 0.0433204
0.365759 0.0531624 0.0433356
0.365759 0.0531624 0.0433356
0.365759 0.0531624 0.0433356
0.365759 0.0531624 0.0433356
0.365759 0.0531624 0.0433356
0.365759 0.0531624 0.0433356
0.365759 0.0531624 0.0433356
0.365759 0.0531624 0.0433356
0.365759 0.0531624 0.0433356
0.365759 0.0531624 0.0433356
0.0309606 0.0913405 0.0707713
0.0311284 0.0897688 0.0694591
0.0314794 0.0887465 0.0682536
0.0319829 0.0878157 0.0670939
0.032639 0.0867018 0.0657206
0.0335241 0.0854505 0.064332
0.0416724 0.0881056 0.0633249
0.0531777 0.0924086 0.0619974
0.0855268 0.096788 0.0576638
0.123033 0.0928817 0.051545
0.157824 0.0831464 0.0446021
0.180148 0.0743725 0.0394141
0.184985 0.0652934 0.0364538
0.182574 0.0558785 0.0350805
0.201526 0.0534371 0.0353552
0.240345 0.0548409 0.0368048
0.274815 0.054902 0.0383154
0.302815 0.0539101 0.039826
0.330404 0.0538796 0.0413062
0.354513 0.0547189 0.0425727
0.362966 0.0538338 0.0431067
0.364736 0.0534218 0.0432441
0.36553 0.0532235 0.0433204
0.365759 0.0531624 0.0433356
0.365759 0.0531624 0.0433356
0.365759 0.0531624 0.0433356
0.365759 0.0531624 0.0433356
0.365759 0.0531624 0.0433356
0.365759 0.0531624 0.0433356
0.365759 0.0531624 0.0433356
0.365759 0.0531624 0.0433356
0.365759 0.0531624 0.0433356
0.365759 0.0531624 0.0433356
0.0302281 0.111482 0.0829175
0.0301518 0.109667 0.0814069
0.0300908 0.108019 0.0799878
0.0301671 0.106752 0.0781872
0.0305028 0.10544 0.0763561
0.0310674 0.103914 0.0742962
0.0362707 0.104906 0.0732891
0.0455634 0.108034 0.072755
0.0738537 0.118013 0.0709392
0.120394 0.127474 0.0661326
0.180652 0.121904 0.057084
0.229633 0.111299 0.0501717
0.260563 0.0970474 0.0425422
0.289296 0.0812085 0.038468
0.283833 0.0712291 0.0386511
0.287846 0.0636301 0.0387732
0.296788 0.0580148 0.0391699
0.319905 0.0563668 0.040528
0.337362 0.0551308 0.0415808
0.351629 0.0545968 0.0424201
0.362188 0.0540017 0.043061
0.364614 0.0534524 0.0432441
0.365408 0.053254 0.0433051
0.365759 0.0531624 0.0433356
0.365759 0.0531624 0.0433356
0.365759 0.0531624 0.0433356
0.365759 0.0531624 0.0433356
0.365759 0.0531624 0.0433356
0.365759 0.0531624 0.0433356
0.365759 0.0531624 0.0433356
0.365759 0.0531624 0.0433356
0.365759 0.0531624 0.0433356
0.365759 0.0531624 0.0433356
0.0312505 0.136858 0.10074
0.0311589 0.134829 0.0988327
0.0310826 0.132967 0.0968032
0.0310369 0.131197 0.0948196
0.0310216 0.129473 0.0923476
0.0310216 0.127367 0.0892958
0.0329137 0.126284 0.0864118
0.0400092 0.128679 0.0852827
0.060441 0.136919 0.0848249
0.0983139 0.151736 0.0843214
0.177035 0.16524 0.0785687
0.25626 0.159518 0.0669261
0.319707 0.143175 0.0543832
0.357809 0.122942 0.0479438
0.377691 0.102586 0.0445563
0.383185 0.0853132 0.0431983
0.38262 0.0745098 0.0433051
0.380606 0.0667277 0.0433661
0.376089 0.0609903 0.0432898
0.377447 0.0576333 0.043534
0.380591 0.0560006 0.0438392
0.375204 0.05449 0.0437018
0.368826 0.0536202 0.0434424
0.365759 0.0531624 0.0433356
0.365759 0.0531624 0.0433356
0.365759 0.0531624 0.0433356
0.365759 0.0531624 0.0433356
0.365759 0.0531624 0.0433356
0.365759 0.0531624 0.0433356
0.365759 0.0531624 0.0433356
0.365759 0.0531624 0.0433356
0.365759 0.0531624 0.0433356
0.365759 0.0531624 0.0433356
0.0327001 0.166384 0.115572
0.0325017 0.164004 0.113954
0.0323796 0.161868 0.112245
0.0322881 0.159503 0.109957
0.0322271 0.157168 0.106905
0.0321813 0.154528 0.102983
0.0321355 0.151705 0.0997024
0.0357366 0.153353 0.0968643
0.0496071 0.159426 0.0970016
0.0893263 0.176471 0.0996872
0.16611 0.20148 0.0935531
0.262943 0.214801 0.0852369
0.351431 0.201495 0.0720531
0.415061 0.176638 0.0590829
0.451286 0.150118 0.0520638
0.47306 0.123796 0.0498817
0.478035 0.100603 0.0485084
0.470375 0.0881056 0.0482185
0.461189 0.0763104 0.047364
0.450767 0.0689097 0.0468452
0.437232 0.064332 0.0463722
0.420493 0.0603189 0.0456855
0.403937 0.0574655 0.0449836
0.393469 0.0557107 0.0445411
0.388388 0.0552529 0.0443275
0.38439 0.0548714 0.0441444
0.381445 0.054612 0.0440223
0.379553 0.0544289 0.0439307
0.378378 0.0543221 0.0438849
0.377905 0.0542763 0.0438697
0.377661 0.0542611 0.0438544
0.377432 0.0542306 0.0438392
0.377188 0.0542153 0.0438392
0.0357671 0.202213 0.128069
0.0356298 0.19968 0.125154
0.0354772 0.197162 0.122377
0.0353094 0.194278 0.119158
0.0352026 0.191318 0.116899
0.0357519 0.188769 0.113222
0.0362707 0.185534 0.108995
0.0379797 0.184833 0.104143
0.0399176 0.186511 0.100511
0.0802472 0.20531 0.107866
0.151598 0.23267 0.108705
0.252277 0.261219 0.101411
0.364904 0.269734 0.0914931
0.453727 0.244785 0.0767681
0.509026 0.21442 0.0652323
0.539345 0.181933 0.0595712
0.552926 0.148699 0.0542153
0.551553 0.124269 0.0535439
0.543069 0.10222 0.0520333
0.532616 0.0873274 0.0512551
0.517922 0.0803845 0.0503853
0.499947 0.0754253 0.049424
0.481788 0.0709392 0.0485237
0.465873 0.0670939 0.0477455
0.454139 0.065156 0.0472267
0.444968 0.0637064 0.0468147
0.438239 0.0626383 0.0465248
0.433661 0.0619211 0.0463111
0.431235 0.0615244 0.0462043
0.430152 0.0613565 0.0461585
0.429618 0.0612802 0.0461433
0.429084 0.0611887 0.0461128
0.428534 0.0610971 0.0460975
0.0393378 0.245228 0.158923
0.0392004 0.242618 0.156542
0.0390784 0.240192 0.154376
0.0389258 0.237415 0.151843
0.0387274 0.233997 0.148821
0.0387121 0.230289 0.144198
0.0390936 0.226261 0.137118
0.0405127 0.223072 0.128344
0.0450599 0.224552 0.119631
0.0691539 0.237232 0.119234
0.137926 0.264607 0.127077
0.245304 0.29987 0.127062
0.359564 0.326589 0.113848
0.476112 0.326711 0.100435
0.554208 0.292836 0.0852216
0.599405 0.258946 0.0764477
0.619791 0.222065 0.0671855
0.622446 0.184283 0.0608377
0.617288 0.151766 0.0586252
0.605051 0.122469 0.0556497
0.59173 0.104875 0.05449
0.576776 0.0971695 0.0536202
0.563272 0.0921035 0.052842
0.551507 0.0880446 0.0521706
0.541421 0.0847639 0.0515908
0.531365 0.0823835 0.0510719
0.523903 0.0806439 0.0506905
0.519142 0.07953 0.0504616
0.516167 0.0788434 0.050309
0.514977 0.0785687 0.050248
0.514382 0.0784161 0.0502174
0.513771 0.0782788 0.0501869
0.513176 0.0781415 0.0501564
0.0450599 0.291615 0.182879
0.044831 0.289067 0.180545
0.0446021 0.286534 0.178256
0.0443427 0.283726 0.175906
0.0440833 0.280217 0.172763
0.0437629 0.275959 0.169162
0.0437781 0.271397 0.163668
0.0439612 0.265919 0.156619
0.0467536 0.264836 0.148791
0.0568551 0.270191 0.143969
0.0932174 0.289769 0.146914
0.200855 0.32961 0.161929
0.347845 0.368948 0.153628
0.473198 0.394003 0.13872
0.574746 0.38294 0.126192
0.641489 0.344823 0.106752
0.678859 0.309285 0.0927749
0.689937 0.269581 0.0789044
0.686946 0.228611 0.0697185
0.675929 0.189334 0.0629435
0.662531 0.156939 0.059678
0.649973 0.139254 0.0581064
0.636851 0.127749 0.0571603
0.624552 0.118975 0.0564126
0.614206 0.112001 0.0558022
0.605905 0.106752 0.055314
0.599817 0.103151 0.0549477
0.59588 0.1019 0.0547341
0.593805 0.101244 0.054612
0.592874 0.100954 0.054551
0.592401 0.100816 0.0545205
0.591943 0.100664 0.0545052
0.591485 0.100526 0.0544747
0.0531472 0.340444 0.19884
0.0528573 0.337636 0.196658
0.0527352 0.335103 0.194903
0.0528267 0.332433 0.193042
0.0527504 0.328939 0.190768
0.0524453 0.324346 0.187671
0.0518502 0.318914 0.18352
0.0507973 0.312383 0.1776
0.0501869 0.307057 0.170245
0.0544137 0.306416 0.163592
0.0700084 0.317739 0.16585
0.140368 0.351492 0.176944
0.323125 0.403998 0.193805
0.467597 0.441138 0.179263
0.590906 0.462455 0.165423
0.671321 0.439109 0.150774
0.726329 0.403265 0.132143
0.754055 0.366751 0.112749
0.759594 0.325811 0.0952163
0.754574 0.283864 0.0824598
0.74313 0.243961 0.0727245
0.730571 0.212345 0.0665293
0.717891 0.191501 0.0637522
0.704601 0.178714 0.0624247
0.693721 0.168368 0.0613718
0.684977 0.161074 0.0605936
0.678553 0.155718 0.060029
0.674174 0.152071 0.0596323
0.671855 0.150149 0.0594339
0.670573 0.149065 0.0593118
0.670054 0.148638 0.059266
0.669535 0.148211 0.0592203
0.669291 0.147997 0.059205
0.0922255 0.403769 0.236896
0.0895552 0.399969 0.234302
0.0885481 0.396811 0.230915
0.0872206 0.393194 0.2271
0.0853285 0.388708 0.222461
0.0826886 0.383062 0.216648
0.0793317 0.375952 0.209354
0.0762951 0.368032 0.200443
0.0729992 0.35993 0.190906
0.0705119 0.353552 0.181888
0.0892042 0.360769 0.181964
0.138354 0.385977 0.190967
0.274189 0.432715 0.20914
0.45507 0.48127 0.215518
0.604456 0.51989 0.203387
0.706004 0.528725 0.192599
0.771695 0.505714 0.178515
0.809506 0.47187 0.162539
0.828397 0.436377 0.143328
0.832044 0.397589 0.119127
0.825025 0.357397 0.10312
0.813993 0.321492 0.0912032
0.803021 0.290654 0.0803388
0.790311 0.27097 0.0756085
0.779095 0.256031 0.0732586
0.769924 0.244968 0.0715801
0.763088 0.237095 0.0704051
0.758724 0.232044 0.0696422
0.755993 0.228901 0.0691691
0.75491 0.227634 0.068986
0.75436 0.227008 0.0688792
0.753811 0.226383 0.0687877
0.753262 0.225757 0.0686961
0.207645 0.491569 0.265522
0.19617 0.485649 0.262776
0.185473 0.480125 0.260243
0.173465 0.473869 0.257191
0.158724 0.466194 0.253452
0.149569 0.458442 0.248951
0.143069 0.449653 0.243412
0.137346 0.440284 0.235981
0.131868 0.42977 0.226978
0.140978 0.426963 0.218143
0.154543 0.428504 0.209873
0.195377 0.442679 0.210986
0.289784 0.476783 0.226017
0.45034 0.524804 0.246693
0.618921 0.567926 0.248371
0.737896 0.597375 0.238239
0.80943 0.594675 0.231388
0.851133 0.573007 0.225055
0.875502 0.543435 0.210437
0.887663 0.512383 0.189593
0.889403 0.479591 0.165835
0.884611 0.444892 0.141131
0.875914 0.413428 0.125994
0.867124 0.387564 0.112032
0.858839 0.367468 0.101228
0.850767 0.35375 0.0962844
0.844648 0.344854 0.0939651
0.840726 0.339162 0.0924849
0.838285 0.335607 0.0915541
0.837293 0.334188 0.0911727
0.836805 0.333471 0.0909895
0.836316 0.332769 0.0908064
0.835828 0.332052 0.0906233
0.453117 0.594629 0.293904
0.440055 0.589563 0.29163
0.427146 0.584573 0.289464
0.412634 0.578882 0.28687
0.394949 0.571908 0.283726
0.373342 0.563256 0.279667
0.346441 0.552453 0.274662
0.318318 0.53785 0.267826
0.290623 0.522576 0.258961
0.282353 0.515251 0.248463
0.282811 0.511772 0.238117
0.307851 0.516762 0.235523
0.378454 0.538231 0.249805
0.491356 0.573831 0.276143
0.626322 0.612757 0.297215
0.749447 0.645502 0.298207
0.829465 0.661219 0.295384
0.877134 0.656229 0.292531
0.90132 0.635874 0.291218
0.915984 0.610636 0.276295
0.924849 0.58703 0.253437
0.924926 0.558846 0.227634
0.921355 0.53109 0.202701
0.917082 0.507713 0.18233
0.912688 0.489693 0.167254
0.909087 0.474876 0.155245
0.905303 0.465156 0.14902
0.902205 0.458412 0.145586
0.900572 0.454826 0.143771
0.899855 0.453239 0.142962
0.899489 0.452445 0.14255
0.899123 0.451652 0.142153
0.898756 0.450858 0.141741
0.631235 0.659403 0.312566
0.623896 0.656382 0.311025
0.617105 0.653605 0.309606
0.609369 0.650385 0.307881
0.599954 0.646479 0.305821
0.588342 0.641611 0.30312
0.573861 0.635508 0.299718
0.556634 0.628214 0.295567
0.522881 0.614786 0.288502
0.506325 0.606744 0.280812
0.518395 0.608042 0.273411
0.535851 0.611627 0.269993
0.550134 0.618143 0.281819
0.584878 0.631037 0.304006
0.661875 0.656809 0.335363
0.757107 0.68513 0.357153
0.836149 0.707149 0.363668
0.886976 0.713069 0.366812
0.915999 0.701274 0.365438
0.930892 0.682536 0.36051
0.939666 0.663294 0.344564
0.942336 0.642329 0.320775
0.941649 0.622736 0.299336
0.9402 0.606012 0.280507
0.938643 0.592477 0.264378
0.937514 0.582254 0.252079
0.936522 0.574685 0.242985
0.935775 0.569665 0.236988
0.93521 0.566552 0.233524
0.934783 0.565042 0.232242
0.934569 0.564294 0.231601
0.934356 0.563546 0.230961
0.934142 0.562799 0.23032
0.653437 0.668971 0.318959
0.64918 0.66714 0.317617
0.64506 0.665385 0.316396
0.64062 0.663401 0.314961
0.634806 0.660838 0.313222
0.627924 0.657771 0.31107
0.619394 0.65391 0.308248
0.608911 0.649149 0.304707
0.601999 0.64535 0.300496
0.606363 0.645319 0.295995
0.645991 0.657755 0.292576
0.687343 0.671397 0.291234
0.701411 0.680171 0.30457
0.693233 0.681041 0.323903
0.726207 0.696941 0.358618
0.78262 0.718746 0.39585
0.840421 0.736721 0.415213
0.887419 0.747951 0.424811
0.920668 0.741253 0.424536
0.938277 0.726177 0.421286
0.946487 0.711528 0.415366
0.9505 0.698253 0.402213
0.951232 0.684749 0.386923
0.950256 0.674006 0.372183
0.949187 0.664118 0.357412
0.948348 0.656504 0.345739
0.947692 0.650645 0.336675
0.947188 0.646677 0.330419
0.946899 0.644343 0.326741
0.946777 0.643412 0.325261
0.946715 0.642939 0.324529
0.946624 0.642344 0.323827
0.946532 0.641764 0.32311
0.674922 0.677974 0.324987
0.673793 0.677272 0.323842
0.672663 0.67657 0.322698
0.67155 0.675868 0.321553
0.669963 0.674891 0.319951
0.668177 0.673762 0.31812
0.665537 0.672114 0.315785
0.662318 0.6701 0.313008
0.657328 0.66714 0.309255
0.652705 0.663966 0.304585
0.690059 0.675731 0.301595
0.722408 0.687282 0.302007
0.75111 0.700816 0.313542
0.75787 0.708888 0.333944
0.772534 0.720104 0.366598
0.806561 0.73785 0.410086
0.847333 0.754589 0.43949
0.885008 0.767941 0.459144
0.918395 0.767071 0.46067
0.940398 0.754177 0.458351
0.949889 0.743069 0.465675
0.953536 0.735759 0.468223
0.955215 0.728695 0.459159
0.955291 0.72285 0.450477
0.955077 0.717006 0.44155
0.954803 0.711635 0.433097
0.954604 0.707515 0.426688
0.954421 0.704479 0.421744
0.954314 0.702663 0.418738
0.954192 0.701732 0.417273
0.954131 0.701259 0.416526
0.95407 0.700801 0.415793
0.954025 0.700328 0.415061
0.679179 0.680644 0.329335
0.678065 0.679942 0.328191
0.677043 0.679316 0.327153
0.675807 0.678538 0.325902
0.674357 0.677623 0.324407
0.672435 0.676432 0.322469
0.670085 0.674968 0.320058
0.667201 0.673167 0.31722
0.665125 0.671336 0.313893
0.670024 0.671672 0.310002
0.711406 0.6851 0.307988
0.751827 0.70016 0.310307
0.778408 0.712825 0.32047
0.786725 0.721462 0.339132
0.789395 0.728405 0.367926
0.815381 0.744717 0.410117
0.84947 0.761379 0.444739
0.883818 0.77435 0.464912
0.916014 0.777005 0.473716
0.940368 0.769726 0.475181
0.951156 0.762539 0.485924
0.955444 0.757717 0.497429
0.956497 0.753628 0.499611
0.956878 0.751827 0.49836
0.957092 0.750607 0.497124
0.957107 0.749371 0.495415
0.957046 0.74757 0.492668
0.956893 0.7449 0.488319
0.956786 0.743252 0.485618
0.956741 0.742535 0.484428
0.956725 0.742168 0.483818
0.956695 0.741802 0.483223
0.95668 0.741436 0.482628
0.682902 0.682963 0.33312
0.681773 0.682261 0.331975
0.680766 0.681636 0.330938
0.67953 0.680858 0.329671
0.678065 0.679942 0.328191
0.676158 0.678752 0.326238
0.673899 0.677348 0.323949
0.670985 0.675517 0.320974
0.667842 0.673487 0.317556
0.672663 0.673793 0.313664
0.706996 0.684703 0.31133
0.749386 0.699977 0.312627
0.78088 0.714046 0.321492
0.798718 0.726467 0.34081
0.805264 0.735866 0.369162
0.82121 0.748653 0.407691
0.849165 0.763348 0.443519
0.881849 0.775891 0.464942
0.914702 0.780179 0.475868
0.940536 0.775448 0.481071
0.95111 0.769253 0.492912
0.955962 0.76759 0.509789
0.956909 0.766445 0.517632
0.95729 0.766201 0.520928
0.957488 0.765896 0.521828
0.957443 0.764584 0.519646
0.957412 0.763333 0.517678
0.957397 0.762524 0.516442
0.957382 0.761746 0.515221
0.957366 0.76144 0.514717
0.957366 0.761273 0.514473
0.957366 0.76112 0.514214
0.957366 0.760967 0.51397
0.685924 0.684855 0.336202
0.684916 0.68423 0.33518
0.683803 0.683528 0.334035
0.682551 0.68275 0.332769
0.681102 0.681849 0.331289
0.679301 0.68072 0.329442
0.676936 0.67924 0.327047
0.674022 0.677424 0.324071
0.670649 0.675319 0.320638
0.674846 0.675532 0.31667
0.703899 0.684535 0.314046
0.747585 0.699931 0.314641
0.779446 0.713649 0.321859
0.798276 0.725826 0.3393
0.805707 0.735454 0.366247
0.82269 0.749081 0.404059
0.849302 0.764477 0.441077
0.880079 0.777081 0.464866
0.913573 0.781079 0.474678
0.940429 0.776089 0.480934
0.951415 0.770764 0.495247
0.95613 0.771817 0.515923
0.956939 0.772198 0.524392
0.95729 0.771115 0.527626
0.957443 0.770626 0.52929
0.957473 0.770459 0.529
0.957473 0.770459 0.528984
0.957488 0.770504 0.529046
0.957488 0.770489 0.529
0.957488 0.770428 0.528908
0.957488 0.770397 0.528847
0.957488 0.770367 0.528801
0.957488 0.770336 0.528756
0.688411 0.686412 0.33872
0.687282 0.68571 0.337575
0.686275 0.685069 0.336553
0.685039 0.684306 0.335286
0.683574 0.683391 0.333806
0.681666 0.6822 0.331853
0.679301 0.68072 0.329442
0.676493 0.678965 0.326589
0.673121 0.67686 0.323156
0.676265 0.676768 0.319142
0.701579 0.684474 0.316243
0.746105 0.699916 0.31632
0.778454 0.713436 0.322316
0.798032 0.725383 0.338247
0.805264 0.734844 0.36408
0.82208 0.748165 0.400488
0.848402 0.763607 0.43772
0.878767 0.776654 0.462638
0.912795 0.781781 0.473548
0.940658 0.775982 0.479042
0.951507 0.770718 0.495033
0.9561 0.771771 0.516503
0.957031 0.772854 0.526787
0.957321 0.773327 0.531151
0.957397 0.773632 0.533898
0.957412 0.773251 0.533425
0.957412 0.772824 0.532738
0.957427 0.77261 0.532403
0.957427 0.772519 0.532235
0.957427 0.772457 0.532128
0.957427 0.772427 0.532082
0.957427 0.772381 0.532036
